fs/pen_prohibited_16_regular.svg

<svg viewBox="0 0 16 16" fill="none" xmlns="http://www.w3.org/2000/svg" height="1em" width="1em">
  <path d="M9.73321 1.56042C10.4808 0.812927 11.6927 0.812954 12.4403 1.56048C13.1878 2.30805 13.1878 3.52011 12.4402 4.26765L11.5981 5.10965C11.2433 5.03775 10.8761 5.00001 10.5 5.00001C10.4295 5.00001 10.3594 5.00134 10.2895 5.00397L11.7331 3.56051C12.0902 3.20349 12.0902 2.62462 11.7331 2.26758C11.3761 1.91057 10.7973 1.91056 10.4403 2.26755L3.04536 9.6618C2.97412 9.73304 2.92044 9.81989 2.88858 9.91547L2.29058 11.7095L4.08464 11.1114C4.18019 11.0796 4.26701 11.0259 4.33823 10.9547L5.00399 10.289C5.00135 10.359 5.00001 10.4294 5.00001 10.5C5.00001 10.8759 5.03772 11.2429 5.10955 11.5976L5.04531 11.6619C4.86432 11.8428 4.64368 11.9792 4.40087 12.0601L1.65813 12.9744C1.47846 13.0343 1.28038 12.9875 1.14646 12.8536C1.01254 12.7197 0.965783 12.5216 1.02567 12.3419L1.93989 9.59924C2.02085 9.35637 2.15725 9.13568 2.33829 8.95466L9.73321 1.56042ZM6 10.5C6 8.01472 8.01472 6 10.5 6C12.9853 6 15 8.01472 15 10.5C15 12.9853 12.9853 15 10.5 15C8.01472 15 6 12.9853 6 10.5ZM7 10.5C7 11.2862 7.2592 12.0118 7.69681 12.5961L12.5961 7.69681C12.0118 7.2592 11.2862 7 10.5 7C8.567 7 7 8.567 7 10.5ZM10.5 14C12.433 14 14 12.433 14 10.5C14 9.71383 13.7408 8.9882 13.3032 8.40391L8.40391 13.3032C8.9882 13.7408 9.71383 14 10.5 14Z" fill="#212121"/>
</svg>

<svg viewBox="0 0 16 16" fill="none" xmlns="http://www.w3.org/2000/svg" height="1em" width="1em">
  <path d="M9.733 1.56a1.914 1.914 0 0 1 2.707 2.708l-.842.842a5.524 5.524 0 0 0-1.309-.106l1.444-1.443a.914.914 0 1 0-1.293-1.293L3.045 9.662a.649.649 0 0 0-.156.253L2.29 11.71l1.794-.599a.648.648 0 0 0 .253-.156l.666-.666a5.6 5.6 0 0 0 .106 1.309l-.065.064a1.65 1.65 0 0 1-.644.398l-2.743.914a.5.5 0 0 1-.632-.632l.914-2.743c.08-.243.217-.463.398-.644L9.733 1.56ZM6 10.5a4.5 4.5 0 1 1 9 0 4.5 4.5 0 0 1-9 0Zm1 0c0 .786.26 1.512.697 2.096l4.9-4.9A3.5 3.5 0 0 0 7 10.5Zm3.5 3.5a3.5 3.5 0 0 0 2.803-5.596l-4.9 4.9A3.49 3.49 0 0 0 10.5 14Z" fill="#212121"/>
</svg>
